X:1
T:Title
%%score ( 1 2 ) { 3 | 4 }
L:1/8
Q:1/4=130
M:3/4
K:Ab
V:1 treble nm="Grand Piano, Soprano"
V:2 treble 
V:3 bass nm="Choir Pad, Steward, John T. Layton"
V:4 bass 
V:1
 [Ec]2 [Ec]4 | [DB]2 [CA]4 | z2 B2 z2 | [DF]2 [CE]4 | [EG]2 [EG]4 | [EA]2 [EB]4 | E2 [EA]4 | %7
w: By~John~Turner~Layton,~Sr.,~1898 *|||||||
 [EB]2 [Ec]4 | [DE]2 [Cc]4 | [DB]2 [CA]4 | z2 B2 z2 | [DF]2 [CE]4 | [Ec]2 [Ec]4 | [Ee]2 F4 | %14
w: |||||||
 [Fd]2 [Ec]2 [CA]2 | [DB]2 [CA]4- | [CA]4 z2 |] %17
w: |||
V:2
 x6 | x6 | [=EG]2 F2- [FA]2 | x6 | x6 | x6 | x6 | x6 | x6 | x6 | [=EG]2 F2- [FA]2 | x6 | x6 | x6 | %14
 x6 | x6 | x6 |] %17
V:3
 A,2 A,4 | G,2 A,4 | B,2 A,4 | A,2 A,4 | B,2 B,4 | A,2 G,4 | G,2 A,4 | G,2 A,4 | G,2 A,4 | %9
 G,2 A,4 | B,2 A,4 | A,2 A,4 | A,2 A,4 | A,2 A,4 | B,2 A,4 | G,2 A,4- | A,4 z2 |] %17
V:4
 A,,2 A,,4 | E,2 F,4 | C,2 D,4 | F,2 z2 z2 | E,2 D,4 | C,2 B,,4 | D,2 C,4 | B,,2 A,,4 | B,,2 A,,4 | %9
 E,2 F,4 | C,2 D,4 | F,2 z2 z2 | A,,2 A,,4 | C,2 D,4 | B,,2 E,4 | [E,,E,]2 A,,4- | A,,4 z2 |] %17

